X: 17
T:Loliña
M:6/8
L:1/8
C:Rosendo Mato Hermida
S:Ricardo Portela
R:Muiñeira
A:Galicia
K:C
GAB | cBA GAB | A2G GFE |   DEF DEF  | F2E GAB | cBA GAB | A2G GFE | DEF
 GAG | E3 :|
|: 
GFE | GFE GFE | G3 GFE | DEF DEF | F2E GFE | GFE GFE| G3 GFE | AGF DFD |
 E3 || 
| 
K:Cmin 
| CDE| EDC GAG | FED DEF | FED FGF |EDC CDE |EDC EDC F3 AGF | EDC =B,CD
| C3 |
|:
 K:C
 | GEG | GEG AGE | =F2D FDF | =FDE FGA | G2E GEG | GEG AGE |=F2D FGA |BA
G
=FED | "D.C." C3 :||

